X: 20
T: Cooley's
Z: PhilPontoise
S: https://thesession.org/tunes/1#setting46013
R: reel
M: 4/4
L: 1/8
K: Ddor
|:DAAG A2 DA|A2 GA cAGF|ECGC ACGC|ECEG cGEC|
DAAG A2 DA|A2 GA cdef|gede cAGE|1 :CDEC D2 A,C:|2 CDEC D2 fe||
|:dA ~A2 dAfA|dA ~A2 fdcA|G2 EG CGEG|AGEG cdef|
dA ~A2 dAfA|dA A2 cdef|gede cAGE|1 CDEC D2 fe:|2 CDEC D2 A,C||

